; generated by Slic3r 1.2.9 on 2015-09-01 at 09:44:54

; external perimeters extrusion width = 0.63mm
; perimeters extrusion width = 0.63mm
; infill extrusion width = 0.63mm
; solid infill extrusion width = 0.63mm
; top infill extrusion width = 0.63mm

; external perimeters extrusion width = 0.63mm
; perimeters extrusion width = 0.63mm
; infill extrusion width = 0.63mm
; solid infill extrusion width = 0.63mm
; top infill extrusion width = 0.63mm

M107
M190 S75 ; set bed temperature
M104 S210 T0 ; set temperature
M104 S210 T1 ; set temperature
G28
G29
G1 Z10 F2500
G1 X500 Y500 F2500
M109 S210 T0 ; wait for temperature to be reached
M109 S210 T1 ; wait for temperature to be reached
G21 ; set units to millimeters
G90 ; use absolute coordinates
M82 ; use absolute distances for extrusion
G92 E0
T0
G92 E0
; Layer: 0, Height: 0.396
G1 E-1.00000 F600.00000
G92 E0
G1 Z0.250 F6000.000
G1 Z0.396 F6000.000
G1 Z0.646 F6000.000
G1 X476.488 Y453.605 F6000.000
G1 Z0.396 F6000.000
G1 E1.00000 F600.00000
G1 X476.963 Y453.159 E1.02886 F1080.000
G1 X477.578 Y452.681 E1.06338
G1 X478.114 Y452.338 E1.09157
G1 X478.683 Y452.037 E1.12014
G1 X479.277 Y451.784 E1.14873
G1 X479.880 Y451.584 E1.17688
G1 X480.497 Y451.435 E1.20504
G1 X480.978 Y451.355 E1.22665
G1 X481.593 Y451.298 E1.25401
G1 X518.238 Y451.291 E2.87815
G1 X519.024 Y451.355 E2.91309 F1080.000
G1 X519.664 Y451.469 E2.94193
G1 X520.120 Y451.584 E2.96279
G1 X520.723 Y451.784 E2.99090
G1 X521.315 Y452.036 E3.01945
G1 X521.886 Y452.338 E3.04804
G1 X522.411 Y452.673 E3.07569
G1 X523.037 Y453.160 E3.11083
G1 X523.511 Y453.605 E3.13964
G1 X523.948 Y454.091 E3.16861
G1 X524.319 Y454.578 E3.19575
G1 X524.577 Y454.972 E3.21661
G1 X524.890 Y455.534 E3.24513
G1 X525.155 Y456.121 E3.27368
G1 X525.369 Y456.722 E3.30195
G1 X525.566 Y457.499 E3.33748
G1 X525.665 Y458.145 E3.36645
G1 X525.714 Y459.000 E3.40440
G1 X525.702 Y541.408 E7.05685
G1 X525.645 Y542.021 E7.08410
G1 X525.531 Y542.664 E7.11308
G1 X525.369 Y543.279 E7.14123
G1 X525.218 Y543.719 E7.16187
G1 X524.972 Y544.298 E7.18974
G1 X524.662 Y544.886 E7.21921
G1 X524.337 Y545.397 E7.24605
G1 X523.947 Y545.910 E7.27462
G1 X523.511 Y546.395 E7.30352
G1 X523.039 Y546.839 E7.33226
G1 X522.421 Y547.319 E7.36692
G1 X521.886 Y547.662 E7.39512
G1 X521.316 Y547.964 E7.42366
G1 X520.725 Y548.216 E7.45215
G1 X520.279 Y548.369 E7.47304
G1 X519.690 Y548.526 E7.50008
G1 X519.019 Y548.645 E7.53025
G1 X518.408 Y548.702 E7.55746
G1 X482.000 Y548.714 E9.17112
G1 X481.145 Y548.665 E9.20906
G1 X480.335 Y548.531 E9.24546
G1 X479.722 Y548.369 E9.27358
G1 X479.276 Y548.216 E9.29448
G1 X478.533 Y547.890 E9.33041
G1 X478.114 Y547.662 E9.35155
G1 X477.583 Y547.322 E9.37952
G1 X476.964 Y546.841 E9.41427
G1 X476.604 Y546.511 E9.43592
G1 X476.161 Y546.039 E9.46462
G1 X475.777 Y545.556 E9.49196
G1 X475.424 Y545.029 E9.52006
G1 X475.036 Y544.316 E9.55605
G1 X474.784 Y543.723 E9.58458
G1 X474.584 Y543.120 E9.61273
G1 X474.469 Y542.664 E9.63359
G1 X474.335 Y541.857 E9.66984
G1 X474.286 Y541.000 E9.70790
G1 X474.286 Y459.000 E13.34225
G1 X474.335 Y458.143 E13.38031
G1 X474.435 Y457.498 E13.40924
G1 X474.615 Y456.777 E13.44215
G1 X474.844 Y456.123 E13.47287
G1 X475.110 Y455.533 E13.50154
G1 X475.423 Y454.971 E13.53005
G1 X475.778 Y454.443 E13.55826
G1 X476.052 Y454.091 E13.57805
G1 X476.428 Y453.671 E13.60301
G1 F4800
G1 X476.963 Y453.159 E13.51502
G1 F4800
G1 X477.578 Y452.681 E13.42254
G1 F4800
G1 X478.114 Y452.338 E13.34701
G1 F4800
G1 X478.683 Y452.037 E13.27047
G1 F4800
G1 X479.277 Y451.784 E13.19384
G1 F4800
G1 X479.880 Y451.584 E13.11844
G1 F4800
G1 X480.497 Y451.435 E13.04299
G1 F4800
G1 X480.978 Y451.355 E12.98510
G1 F4800
G1 X481.593 Y451.298 E12.91178
G1 F4800
G1 X483.772 Y451.298 E12.65301
G1 E12.60301 F600.00000
G92 E0
G1 Z0.646 F6000.000
G1 X518.825 Y495.785 F6000.000
G1 Z0.396 F6000.000
G1 E1.00000 F600.00000
G1 X518.622 Y495.952 E1.00891 F1080.000
G1 X518.440 Y496.050 E1.01589
G1 X518.189 Y496.121 E1.02472
G1 X517.964 Y496.140 E1.03235
G1 X482.035 Y496.140 E2.24790
G1 X481.813 Y496.122 E2.25546
G1 X481.615 Y496.072 E2.26234
G1 X481.378 Y495.952 E2.27133
G1 X481.215 Y495.825 E2.27832
G1 X481.048 Y495.622 E2.28722
G1 X480.958 Y495.456 E2.29360
G1 X480.880 Y495.205 E2.30250
G1 X480.860 Y494.965 E2.31065
G1 X480.860 Y459.035 E3.52622
G1 X480.880 Y458.795 E3.53437
G1 X480.958 Y458.544 E3.54326
G1 X481.048 Y458.378 E3.54965
G1 X481.215 Y458.175 E3.55855
G1 X481.378 Y458.048 E3.56554
G1 X481.544 Y457.958 E3.57192
G1 X481.795 Y457.880 E3.58081
G1 X482.035 Y457.860 E3.58897
G1 X518.092 Y457.867 E4.80885
G1 X518.280 Y457.898 E4.81529 F1080.000
G1 X518.456 Y457.958 E4.82157
G1 X518.622 Y458.048 E4.82796
G1 X518.825 Y458.215 E4.83686
G1 X518.952 Y458.378 E4.84385
G1 X519.071 Y458.614 E4.85278
G1 X519.122 Y458.813 E4.85972
G1 X519.140 Y459.035 E4.86728
G1 X519.140 Y494.965 E6.08284
G1 X519.122 Y495.187 E6.09040
G1 X519.072 Y495.385 E6.09729
G1 X518.952 Y495.622 E6.10627
G1 X518.880 Y495.714 E6.11022
G1 X519.210 Y496.170 F6000.000
G1 X518.921 Y496.409 E6.12292 F648.000
G1 X518.670 Y496.546 E6.13258
G1 X518.279 Y496.661 E6.14637
G1 X517.987 Y496.685 E6.15629
G1 X482.013 Y496.685 E7.37336
G1 X481.723 Y496.661 E7.38321
G1 X481.330 Y496.546 E7.39707
G1 X481.079 Y496.409 E7.40672
G1 X480.854 Y496.234 E7.41637
G1 X480.590 Y495.921 E7.43022
G1 X480.457 Y495.676 E7.43966
G1 X480.339 Y495.284 E7.45352
G1 X480.315 Y494.987 E7.46358
G1 X480.315 Y459.013 E8.68065
G1 X480.339 Y458.716 E8.69072
G1 X480.457 Y458.324 E8.70458
G1 X480.590 Y458.079 E8.71402
G1 X480.854 Y457.766 E8.72787
G1 X481.079 Y457.590 E8.73751
G1 X481.324 Y457.457 E8.74695
G1 X481.716 Y457.339 E8.76081
G1 X482.013 Y457.315 E8.77087
G1 X518.137 Y457.322 E9.99302
G1 X518.414 Y457.368 E10.00251 F648.000
G1 X518.676 Y457.457 E10.01189
G1 X518.921 Y457.590 E10.02132
G1 X519.234 Y457.854 E10.03517
G1 X519.409 Y458.079 E10.04482
G1 X519.591 Y458.447 E10.05872
G1 X519.661 Y458.723 E10.06834
G1 X519.685 Y459.013 E10.07818
G1 X519.685 Y494.987 E11.29526
G1 X519.661 Y495.277 E11.30510
G1 X519.592 Y495.551 E11.31466
G1 X519.409 Y495.921 E11.32862
G1 X519.269 Y496.102 E11.33637
G1 X518.850 Y496.064 F6000.000
G1 X518.700 Y458.749 F6000.000
G1 X518.247 Y458.296 E11.35826 F900.000
G1 X517.367 Y458.194 E11.38849
G1 X518.812 Y459.640 E11.45828
G1 X518.812 Y460.418 E11.48484
G1 X516.589 Y458.194 E11.59220
G1 X515.811 Y458.194 E11.61877
G1 X518.812 Y461.195 E11.76370
G1 X518.812 Y461.973 E11.79026
G1 X515.033 Y458.194 E11.97276
G1 X514.255 Y458.194 E11.99933
G1 X518.812 Y462.751 E12.21940
G1 X518.812 Y463.529 E12.24596
G1 X513.477 Y458.194 E12.50361
G1 X512.699 Y458.194 E12.53017
G1 X518.812 Y464.307 E12.82539
G1 X518.812 Y465.085 E12.85195
G1 X511.921 Y458.193 E13.18474
G1 X511.143 Y458.193 E13.21130
G1 X518.812 Y465.863 E13.58166
G1 X518.812 Y466.641 E13.60822
G1 X510.365 Y458.193 E14.01615
G1 X509.587 Y458.193 E14.04272
G1 X518.812 Y467.419 E14.48822
G1 X518.812 Y468.197 E14.51478
G1 X508.809 Y458.193 E14.99785
G1 X508.030 Y458.193 E15.02442
G1 X518.812 Y468.975 E15.54506
G1 X518.812 Y469.752 E15.57162
G1 X507.252 Y458.192 E16.12984
G1 X506.474 Y458.192 E16.15640
G1 X518.812 Y470.530 E16.75219
G1 X518.812 Y471.308 E16.77875
G1 X505.696 Y458.192 E17.41211
G1 X504.918 Y458.192 E17.43868
G1 X518.812 Y472.086 E18.10960
G1 X518.812 Y472.864 E18.13617
G1 X504.140 Y458.192 E18.84466
G1 X503.362 Y458.192 E18.87123
G1 X518.812 Y473.642 E19.61730
G1 X518.812 Y474.420 E19.64386
G1 X502.584 Y458.192 E20.42751
G1 X501.806 Y458.191 E20.45407
G1 X518.812 Y475.198 E21.27529
G1 X518.812 Y475.976 E21.30185
G1 X501.028 Y458.191 E22.16063
G1 X500.250 Y458.191 E22.18720
G1 X518.812 Y476.754 E23.08356
G1 X518.812 Y477.532 E23.11012
G1 X499.472 Y458.191 E24.04404
G1 X498.694 Y458.191 E24.07061
G1 X518.812 Y478.309 E25.04211
G1 X518.812 Y479.087 E25.06867
G1 X497.916 Y458.191 E26.07774
G1 X497.138 Y458.191 E26.10431
G1 X518.812 Y479.865 E27.15095
G1 X518.812 Y480.643 E27.17751
G1 X496.360 Y458.190 E28.26172
G1 X495.582 Y458.190 E28.28829
G1 X518.812 Y481.421 E29.41008
G1 X518.812 Y482.199 E29.43664
G1 X494.803 Y458.190 E30.59599
G1 X494.025 Y458.190 E30.62256
G1 X518.812 Y482.977 E31.81949
G1 X518.812 Y483.755 E31.84605
G1 X493.247 Y458.190 E33.08054
G1 X492.469 Y458.190 E33.10711
G1 X518.812 Y484.533 E34.37918
G1 X518.812 Y485.311 E34.40574
G1 X491.691 Y458.190 E35.71538
G1 X490.913 Y458.189 E35.74195
G1 X518.812 Y486.089 E37.08916
G1 X518.812 Y486.866 E37.11572
G1 X490.135 Y458.189 E38.50051
G1 X489.357 Y458.189 E38.52707
G1 X518.812 Y487.644 E39.94943
G1 X518.812 Y488.422 E39.97599
G1 X488.579 Y458.189 E41.43591
G1 X487.801 Y458.189 E41.46248
G1 X518.812 Y489.200 E42.95998
G1 X518.812 Y489.978 E42.98654
G1 X487.023 Y458.189 E44.52161
G1 X486.245 Y458.188 E44.54818
G1 X518.812 Y490.756 E46.12081
G1 X518.812 Y491.534 E46.14738
G1 X485.467 Y458.188 E47.75759
G1 X484.689 Y458.188 E47.78415
G1 X518.812 Y492.312 E49.43194
G1 X518.812 Y493.090 E49.45850
G1 X483.911 Y458.188 E51.14385
G1 X483.133 Y458.188 E51.17042
G1 X518.812 Y493.868 E52.89334
G1 X518.812 Y494.646 E52.91991
G1 X482.355 Y458.188 E54.68040
G1 X481.632 Y458.243 E54.70514
G1 X518.757 Y495.368 E56.49786
G1 X518.369 Y495.758 E56.51665
G1 X481.243 Y458.632 E58.30940
G1 X481.188 Y459.355 E58.33414
G1 X517.645 Y495.812 E60.09464
G1 X516.868 Y495.812 E60.12120
G1 X481.188 Y460.132 E61.84413
G1 X481.188 Y460.910 E61.87069
G1 X516.090 Y495.812 E63.55606
G1 X515.312 Y495.812 E63.58262
G1 X481.188 Y461.688 E65.23042
G1 X481.188 Y462.466 E65.25699
G1 X514.534 Y495.812 E66.86722
G1 X513.756 Y495.812 E66.89379
G1 X481.188 Y463.244 E68.46646
G1 X481.188 Y464.022 E68.49302
G1 X512.978 Y495.812 E70.02813
G1 X512.200 Y495.812 E70.05470
G1 X481.188 Y464.800 E71.55224
G1 X481.188 Y465.578 E71.57880
G1 X511.422 Y495.812 E73.03879
G1 X510.644 Y495.812 E73.06535
G1 X481.188 Y466.356 E74.48777
G1 X481.188 Y467.134 E74.51433
G1 X509.866 Y495.812 E75.89918
G1 X509.088 Y495.812 E75.92575
G1 X481.188 Y467.912 E77.27304
G1 X481.188 Y468.689 E77.29960
G1 X508.311 Y495.812 E78.60932
G1 X507.533 Y495.812 E78.63589
G1 X481.188 Y469.467 E79.90805
G1 X481.188 Y470.245 E79.93461
G1 X506.755 Y495.812 E81.16921
G1 X505.977 Y495.812 E81.19577
G1 X481.188 Y471.023 E82.39280
G1 X481.188 Y471.801 E82.41936
G1 X505.199 Y495.812 E83.57883
G1 X504.421 Y495.812 E83.60540
G1 X481.188 Y472.579 E84.72730
G1 X481.188 Y473.357 E84.75386
G1 X503.643 Y495.812 E85.83820
G1 X502.865 Y495.812 E85.86477
G1 X481.188 Y474.135 E86.91154
G1 X481.188 Y474.913 E86.93810
G1 X502.087 Y495.812 E87.94732
G1 X501.309 Y495.812 E87.97388
G1 X481.188 Y475.691 E88.94553
G1 X481.188 Y476.469 E88.97209
G1 X500.531 Y495.812 E89.90617
G1 X499.754 Y495.812 E89.93274
G1 X481.188 Y477.246 E90.82926
G1 X481.188 Y478.024 E90.85582
G1 X498.976 Y495.812 E91.71478
G1 X498.198 Y495.812 E91.74134
G1 X481.188 Y478.802 E92.56273
G1 X481.188 Y479.580 E92.58929
G1 X497.420 Y495.812 E93.37312
G1 X496.642 Y495.812 E93.39968
G1 X481.188 Y480.358 E94.14595
G1 X481.188 Y481.136 E94.17251
G1 X495.864 Y495.812 E94.88121
G1 X495.086 Y495.812 E94.90777
G1 X481.188 Y481.914 E95.57890
G1 X481.188 Y482.692 E95.60547
G1 X494.308 Y495.812 E96.23904
G1 X493.530 Y495.812 E96.26560
G1 X481.188 Y483.470 E96.86161
G1 X481.188 Y484.248 E96.88817
G1 X492.752 Y495.812 E97.44661
G1 X491.974 Y495.812 E97.47317
G1 X481.188 Y485.026 E97.99405
G1 X481.188 Y485.803 E98.02062
G1 X491.197 Y495.812 E98.50393
G1 X490.419 Y495.812 E98.53049
G1 X481.188 Y486.581 E98.97624
G1 X481.188 Y487.359 E99.00281
G1 X489.641 Y495.812 E99.41099
G1 X488.863 Y495.812 E99.43755
G1 X481.188 Y488.137 E99.80818
G1 X481.188 Y488.915 E99.83474
G1 X488.085 Y495.812 E100.16780
G1 X487.307 Y495.812 E100.19436
G1 X481.188 Y489.693 E100.48985
G1 X481.188 Y490.471 E100.51641
G1 X486.529 Y495.812 E100.77435
G1 X485.751 Y495.812 E100.80091
G1 X481.188 Y491.249 E101.02127
G1 X481.188 Y492.027 E101.04784
G1 X484.973 Y495.812 E101.23064
G1 X484.195 Y495.812 E101.25720
G1 X481.188 Y492.805 E101.40244
G1 X481.188 Y493.583 E101.42900
G1 X483.417 Y495.812 E101.53667
G1 X482.640 Y495.812 E101.56323
G1 X481.188 Y494.360 E101.63334
G1 X481.296 Y495.247 E101.66384
G1 X481.749 Y495.700 E101.68571
; Layer: 1, Height: 0.396
G1 F4800
G1 X481.296 Y495.247 E101.60965
G1 F4800
G1 X481.188 Y494.360 E101.50359
G1 F4800
G1 X482.640 Y495.812 E101.25977
G1 F4800
G1 X483.417 Y495.812 E101.16739
G1 F4800
G1 X481.188 Y493.583 E100.79292
G1 F4800
G1 X481.188 Y493.101 E100.73571
G1 E100.68571 F600.00000
G92 E0
G1 Z0.646 F6000.000
G1 E-4.00000 F600.00000
G92 E0
T1
G92 E0
G0 E10
G92 E0
T0
G92 E0
G0 E-10
G92 E0
; Tool change from 0 to 1
G1 X471.286 Y489.149 F6000.000
T1
G92 E0
G1 E-1.00000 F600.00000
G92 E0
G1 X482.035 Y503.860 F6000.000
G1 Z0.396 F6000.000
G1 E1.00000 F600.00000
G1 X518.092 Y503.867 E2.21988 F1080.000
G1 X518.280 Y503.898 E2.22632 F1080.000
G1 X518.456 Y503.958 E2.23261
G1 X518.622 Y504.048 E2.23899
G1 X518.825 Y504.215 E2.24790
G1 X518.952 Y504.378 E2.25488
G1 X519.071 Y504.614 E2.26382
G1 X519.122 Y504.813 E2.27076
G1 X519.140 Y505.035 E2.27831
G1 X519.140 Y540.965 E3.49388
G1 X519.122 Y541.187 E3.50144
G1 X519.050 Y541.441 E3.51034
G1 X518.952 Y541.622 E3.51731
G1 X518.785 Y541.825 E3.52621
G1 X518.622 Y541.952 E3.53320
G1 X518.386 Y542.071 E3.54214
G1 X518.189 Y542.121 E3.54902
G1 X517.964 Y542.140 E3.55664
G1 X482.035 Y542.140 E4.77219
G1 X481.813 Y542.122 E4.77975
G1 X481.559 Y542.050 E4.78865
G1 X481.378 Y541.952 E4.79562
G1 X481.175 Y541.785 E4.80453
G1 X481.048 Y541.622 E4.81152
G1 X480.958 Y541.456 E4.81790
G1 X480.880 Y541.205 E4.82679
G1 X480.860 Y540.965 E4.83495
G1 X480.860 Y505.035 E6.05051
G1 X480.880 Y504.795 E6.05867
G1 X480.958 Y504.544 E6.06756
G1 X481.048 Y504.378 E6.07394
G1 X481.175 Y504.215 E6.08093
G1 X481.378 Y504.048 E6.08983
G1 X481.544 Y503.958 E6.09622
G1 X481.738 Y503.892 E6.10314
G1 X481.945 Y503.867 E6.11022
G1 X482.035 Y503.315 F6000.000
G1 X518.137 Y503.322 E7.33161 F648.000
G1 X518.414 Y503.368 E7.34110 F648.000
G1 X518.676 Y503.457 E7.35047
G1 X518.921 Y503.590 E7.35991
G1 X519.234 Y503.854 E7.37376
G1 X519.409 Y504.079 E7.38341
G1 X519.591 Y504.447 E7.39730
G1 X519.661 Y504.723 E7.40692
G1 X519.685 Y505.013 E7.41677
G1 X519.685 Y540.987 E8.63384
G1 X519.661 Y541.277 E8.64369
G1 X519.546 Y541.670 E8.65755
G1 X519.409 Y541.921 E8.66720
G1 X519.234 Y542.146 E8.67685
G1 X518.921 Y542.409 E8.69070
G1 X518.670 Y542.546 E8.70036
G1 X518.279 Y542.661 E8.71415
G1 X517.987 Y542.685 E8.72407
G1 X482.013 Y542.685 E9.94114
G1 X481.723 Y542.661 E9.95098
G1 X481.330 Y542.546 E9.96485
G1 X481.079 Y542.409 E9.97450
G1 X480.854 Y542.234 E9.98415
G1 X480.590 Y541.921 E9.99800
G1 X480.457 Y541.676 E10.00744
G1 X480.339 Y541.284 E10.02129
G1 X480.315 Y540.987 E10.03136
G1 X480.315 Y505.013 E11.24843
G1 X480.339 Y504.716 E11.25850
G1 X480.457 Y504.324 E11.27236
G1 X480.590 Y504.079 E11.28179
G1 X480.766 Y503.854 E11.29144
G1 X481.079 Y503.590 E11.30529
G1 X481.324 Y503.457 E11.31473
G1 X481.593 Y503.365 E11.32434
G1 X481.945 Y503.321 E11.33637
G1 X482.355 Y503.823 F6000.000
G1 X518.700 Y504.749 F6000.000
G1 X518.247 Y504.296 E11.35826 F900.000
G1 X517.367 Y504.194 E11.38849
G1 X518.812 Y505.640 E11.45828
G1 X518.812 Y506.418 E11.48484
G1 X516.589 Y504.194 E11.59220
G1 X515.811 Y504.194 E11.61877
G1 X518.812 Y507.195 E11.76370
G1 X518.812 Y507.973 E11.79026
G1 X515.033 Y504.194 E11.97276
G1 X514.255 Y504.194 E11.99933
G1 X518.812 Y508.751 E12.21940
G1 X518.812 Y509.529 E12.24596
G1 X513.477 Y504.194 E12.50360
G1 X512.699 Y504.194 E12.53017
G1 X518.812 Y510.307 E12.82539
G1 X518.812 Y511.085 E12.85195
G1 X511.921 Y504.193 E13.18473
G1 X511.143 Y504.193 E13.21130
G1 X518.812 Y511.863 E13.58166
G1 X518.812 Y512.641 E13.60822
G1 X510.365 Y504.193 E14.01615
G1 X509.587 Y504.193 E14.04272
G1 X518.812 Y513.419 E14.48822
G1 X518.812 Y514.197 E14.51478
G1 X508.809 Y504.193 E14.99785
G1 X508.030 Y504.193 E15.02442
G1 X518.812 Y514.975 E15.54506
G1 X518.812 Y515.752 E15.57162
G1 X507.252 Y504.192 E16.12984
G1 X506.474 Y504.192 E16.15640
G1 X518.812 Y516.530 E16.75219
G1 X518.812 Y517.308 E16.77875
G1 X505.696 Y504.192 E17.41211
